assets/images/icons/facebook-icon.svg

<svg width="35" height="34" viewBox="0 0 35 34" fill="none" xmlns="http://www.w3.org/2000/svg">
<path d="M6.93508 0C3.53648 0 0.799927 2.73655 0.799927 6.13516V27.4649C0.799927 30.8635 3.53648 33.6 6.93508 33.6H18.4956V20.4645H15.0222V15.7353H18.4956V11.6949C18.4956 8.52056 20.5479 5.60596 25.2754 5.60596C27.1896 5.60596 28.605 5.78972 28.605 5.78972L28.4937 10.206C28.4937 10.206 27.0501 10.1924 25.4749 10.1924C23.7701 10.1924 23.4967 10.9779 23.4967 12.2819V15.7353H28.6291L28.4055 20.4645H23.4967V33.6001H28.2648C31.6634 33.6001 34.3999 30.8635 34.3999 27.4649V6.13519C34.3999 2.73659 31.6634 3.36e-05 28.2648 3.36e-05H6.93505L6.93508 0Z" fill="#333333"/>
</svg>

<svg width="35" height="34" fill="none" xmlns="http://www.w3.org/2000/svg"><path d="M6.935 0A6.122 6.122 0 0 0 .8 6.135v21.33A6.122 6.122 0 0 0 6.935 33.6h11.56V20.464h-3.473v-4.729h3.474v-4.04c0-3.174 2.052-6.089 6.78-6.089 1.914 0 3.329.184 3.329.184l-.111 4.416s-1.444-.014-3.02-.014c-1.704 0-1.977.786-1.977 2.09v3.453h5.132l-.224 4.73h-4.908V33.6h4.768a6.122 6.122 0 0 0 6.135-6.135V6.135A6.122 6.122 0 0 0 28.265 0H6.935z" fill="#333"/></svg>
